X: 24678
T: MacLaine Of Loch Buie
R: reel
M: 4/4
K: Amixolydian
e2 de AAAB|g2 fg BGBd|e2 de edea|1 gedB BAAA:|2 gedB A3 e||
|:a2 ag aeef|gage fdcd|eaag aeea|gedB BAAA|
a2 ag aeef|gage fdcd|g2 ag geea|gedB A4:|

